X: 23
T:Polka des bébés ou badina
R:---
C:Bresse
%%continueall 1
I:abc2nwc
Z:Transcrit et/ou corrigé par Michel BELLON - 2005-09-10
Z:Pour toute observation mailto:galouvielle@free.fr
M:2/4
L:1/16
K:C
G2||c3d e2f2|g3a g2e2|f3g f2d2|[c2e2] z2z2G2|c3d e2f2|g3a g2e2|f3g f2d2|[ce] zg2 a3g|e3c c2B2|B zg2 a3g|f3d d2c2|c zg2 c'2c'2|c'3g b2b2|b3g bagf|e2d2 e2e2|e zg2 a3g|e3c c2B2|B zg2 a3g|f3d d2c2|c zg2 c'2c'2|c'3g b2b2|b3g bagf|e2d2[c2e2][c2e2] |[c2e2] z2z2z2|]
w:Je t'ai ben vu Mar-gol~! Cli-gnant de l'oe pou-rihe au-to Moai, je t'ai vu toi-not~! Re-lu-quant la voi-sine ai-to Te vout m'lais-si, bra-va Mar-got~! Je t'ai sur-pris, lor-gnant Jean-not~! Bein, faes l'dan-si, Ma chère A-mie Moai je m'en vas chan-gi de com-pa-gnie que tes donc niais, Mon grous Toi-not~! Je le con-nais il est d'ves-nos Mais, c'que t'as dit mon cher A-mi faet que, drait voir, av'

%%footer $D   Galouvielle-MBe 2006 \n--- (--)
